src/images/logo.svg

<svg fill="none" height="64" viewBox="0 0 75 64" width="75" xmlns="http://www.w3.org/2000/svg" xmlns:xlink="http://www.w3.org/1999/xlink"><clipPath id="a"><path d="m0 0h74.3088v64h-74.3088z"/></clipPath><g clip-path="url(#a)" fill="#fff"><path d="m35.4752 26.081-3.3883 17.4452h.009c2.7286-.3058 4.9685-2.3028 5.5023-4.9985l2.0899-10.5607c.06-.3058.1259-.5967.1949-.8875-.8995-.6927-2.042-1.0465-3.4363-1.0465-.3328 0-.6536.018-.9715.048z"/><path d="m52.1979 7.72114c-2.6387 0-4.9086 1.87406-5.4063 4.46776l-.8126 4.2429-.4348 2.2728-1.8621 9.7092c-.7196-1.7931-1.7241-3.1724-3.0105-4.1319-.003 0-.003-.003-.006-.003 1.0315-2.8156 4.4258-24.2789 4.4258-24.2789-2.6267 0-4.8815 1.86207-5.3823 4.43778l-3.5742 18.40782c-.0929-.003-.1799-.009-.2729-.009-3.6791 0-6.8935 1.3553-9.6371 4.0629-2.7467 2.7107-4.5338 6.087-5.3674 10.138-.0749.4797-.1709 1.1334-.2908 1.955-.12.8216-.1799 1.5682-.1799 2.2339 0 3.1424.8785 5.5742 2.6357 7.2953 1.6281 1.5892 3.8171 2.3868 6.5727 2.3868 4.0509 0 7.6821-2.0149 10.8995-6.0479l-1.1364 5.5742h.009c2.7376-.2909 4.9865-2.2969 5.5112-5.0015l5.3014-27.2984.5817-2.9985zm-9.8201 26.52776c-.036.3778-.093.9655-.1679 1.7601-.6477 3.3283-1.7482 6.1109-3.3014 8.3478-1.997 2.9206-4.4947 4.3808-7.4872 4.3808-2.126 0-3.7182-.7406-4.7707-2.2189-.9055-1.2953-1.3583-2.9775-1.3583-5.0494 0-.3898.054-.9985.1679-1.8291.111-.8306.2039-1.4333.2759-1.8021.7226-3.6432 1.7841-6.4918 3.1904-8.5427 1.6942-2.4408 3.94-3.7812 6.7376-4.03.3179-.027.6417-.045.9746-.045 1.3943 0 2.5367.3538 3.4362 1.0465.4498.3448.8426.7676 1.1695 1.2833.7946 1.2384 1.1934 2.9595 1.1934 5.1574-.003.6507-.021 1.1635-.06 1.5413z"/><path d="m.0989233 59.5742c-.137931-1.0525.1889057-2.114-.0809595-3.1634-.065967-.2549.047976-.4078.3508242-.4318.713642-.054.851572.03.866572.7286.04797 2.1829.08095 4.3658.10794 6.5488.009.7136-.13493.8065-.836581.6596-.251874-.051-.356821-.1619-.356821-.4378 0-1.0045-.032984-2.009-.0509747-3.0135-.047976-.2938-.047976-.5937 0-.8905z"/><path d="m18.2519 63.2654c-.039-1.4273.0659-2.8546-.03-4.2849-.018-.2669-.2519-.6387.048-.9235 0-.4108 0-.8216 0-1.2324-.003-.093-.009-.1829-.006-.2759.012-.2759-.012-.5667-.3629-.5547-.3778.012-.9205-.2309-1.0434.3838-.2399 1.1934-.6867 2.3268-.9686 3.6222-.0929-.2099-.1529-.3209-.1859-.4378-.3028-1.0765-.5937-2.1559-.8995-3.2324-.1859-.6507-.7166-.2818-1.0855-.3268-.3928-.048-.2219.3148-.2278.4887-.021.8396-.009 1.6792-.006 2.5188.003 1.5292.0179 3.0614.006 4.5907-.003.2848.0959.3598.3478.3418.2908-.021.5937.06.8635-.1109.186-.2099.078-.4648.102-.6987.06-.5877-.1169-1.1874.0959-1.7661.093.3628.171.7316.2849 1.0885.1289.4048.4798.3688.8126.3718.3178.003.4258-.129.5127-.4438.093-.3448.102-.7526.4288-1.0555.03.3508-.045.7287.108.9386.2039.2818.1799.3928.003.6626-.1739.2669-.1979.7257.015.9356.2159.2158.6476.1139.9655.0539.3628-.0659.2279-.4198.2219-.6536zm-3.5083-1.8351c-.003.0719-.003.1409-.003.2129-.021-.078-.042-.159.003-.2129z"/><path d="m58.5008 59.2384c-.012-.9716.0899-1.9491-.093-2.9176.1349-.1199.048-.1829-.06-.2459-.1349-.0779-.2458-.1019-.2848.096-.114.1529-.2759.1679-.4468.1559-.033-.042-.066-.0869-.0989-.1289-.009-.1559-.087-.2489-.2429-.1979-.159.054.0479.1319.003.2039-.129.2039-.054.4318-.063.6477-.039.8275.066 1.6611-.057 2.4887-.2938-.009-.5907-.018-.8845-.027 0-.3538.018-.7076-.003-1.0614-.042-.6807.1169-1.3704-.087-2.042-.3958-.3868-.8336-.2669-1.2774-.111-.1199.123-.0899.2789-.0899.4228v6.8846c0 .1469-.03.3028.0929.4228.4408.1439.8786.2758 1.2714-.111.1379-.2219.1349-.4437.003-.6686-.075-.4108-.036-.8246-.003-1.2354.1919-.3868.042-.8006.09-1.1964.3208-.129.5997.0659.8965.1169.039.1769.057.3568.063.5338-.015-.18-.033-.3569-.063-.5338.054.6957-.1049 1.4003.09 2.087-.111.4018.012.6447.4588.6656.0419.003.0809.006.1229.009.0989.174.087.5128.3808.4228.2339-.0719.2969-.3388.2939-.6087-.012-1.3553.006-2.7136-.012-4.0719z"/><path d="m50.3238 56.3808c-.042-.2219-.096-.4588-.3928-.3868-.2729.063-.5337-.024-.8006.003-.2879.4018-.084.8516-.1289 1.2774-.063.2908.1949.5487.0779.8425-.2309.3029.054.7047-.1859 1.0045-.042-.0779-.0989-.1559-.1259-.2398-.2489-.8006-.4918-1.6012-.7346-2.4018-.066-.2189-.141-.4528-.4348-.3778-.2849.0719-.5607-.024-.8396-.003-.2249.8185-.1559 1.6371-.033 2.4587.081.102-.054.2789.12.3478.0119.033.0179.066.0119.102-.3238.3418.027.7646-.1349 1.1244-.1739.2759-.0899.5817-.0809.8696.0359.9415-.12 1.8861.0779 2.8246.3928.1859.7856.1889 1.1784 0 .1739-.4858.036-.9895.081-1.4843.051-.5487-.105-1.1064.0929-1.6461.147.8575.5727 1.6311.7227 2.4947.1289.7496.2458.7676 1.0764.7616.3149-.003.4318-.1049.4288-.4138-.009-.9655.048-1.937-.024-2.8965-.033-.4288.1679-.8726-.0689-1.2864.1799-.1919.0479-.3238-.087-.4528.2759-.1379.075-.4347.2069-.6206-.003-.6327-.003-1.2684-.003-1.9011zm-2.4168 4.4288v.1889c-.015-.066-.024-.1319 0-.1889z"/><path d="m26.4497 57.0525c-.1169-.5608-.3268-1.0465-1.0075-1.0615-.7436-.015-1.4902-.006-2.2339 0-.1559 0-.3448-.018-.3628.2249-.0599.2728-.021.5517-.027.8276-.0329 1.0105.06 2.027-.0479 3.0374.0449.6447.0449 1.2894 0 1.9311.0779.3658.0749.7286 0 1.0944.0509.8426.0509.8426.9505.8426h1.3973c1.0315 0 1.3013-.2758 1.3073-1.3223.006-1.6402.018-3.2834.027-4.9236-.0839-.2218-.0659-.4347-.003-.6506zm-1.0824 4.7076c-.009.03-.021.045-.033.045-.003.1109 0 .2189-.009.3298-.054.6897-.4708.9446-1.1065.6837-.2428-.099-.1559-.3179-.1559-.4828-.006-1.2863 0-2.5727.003-3.859 0-.15.006-.2999-.009-.4468-.0839-.7766.2159-1.0285.9446-.8126.2488.0749.1679.2608.1739.4078.0329.9775-.027 1.967.1199 2.9265.06.3898-.2669.7676.036 1.1185.036.0299.048.0599.036.0899z"/><path d="m34.5787 60.8875c0-1.4452.057-2.8935-.033-4.3388-.3388-.4558-.7826-.6297-1.3553-.5697-.4258.042-.8576.003-1.2864.009-.5817.009-.9175.3298-.9205.9115-.009 2.069-.012 4.138-.009 6.2069 0 .5008.3149.8186.8186.8336.4858.015.9745-.036 1.4543.018.5607.063.9595-.1379 1.2743-.5757.141-.8306.057-1.6642.057-2.4948zm-1.2564.2429c.036.057.066.117.09.1829-.021.4318.036.8696-.099 1.2924-.2878.2848-.6746.1619-.9625.1139-.2638-.045-.1349-.4468-.1349-.6986.006-1.0225.018-2.042-.054-3.0615-.033-.4888.006-.9865.06-1.4723.057-.4977.4678-.1919.7106-.2548.2279-.06.3988.012.3778.3118-.0209.2879-.0119 1.6432.069 1.985-.072.1679.024.4108.03.5877-.018.15.036.3029-.015.4528-.1649.1649-.066.3688-.072.5607z"/><path d="m66.6956 63.0375c.003-.8636-.003-1.7242-.006-2.5877 0-.7737 0-1.5443 0-2.3179 0-.3598-.003-.7226-.003-1.0824-.009-.5368.048-1.0705-.7916-1.0375-.4168.018-.5937.0749-.5397.5367.018.1649.009.3328.012.5008 0 .2968-.003.5967-.003.8935 0 .2369-.003.4738-.003.7107 0 .2098.003.4227.003.6326v2.2699c.024.3088-.102.6297.0809.9235-.2308.6477-.7106.3149-1.1124.2819 0-.7826.003-1.5682.003-2.3508 0-.2339 0-.4648 0-.6987 0-.6267 0-1.2503 0-1.877-.009-.4828-.021-.9686-.021-1.4513 0-.1769 0-.3898-.2129-.3838-.3358.012-.6956-.1499-1.0105.0989-.1409.3359-.1409.6687 0 1.0045 0 .114-.003.2279-.003.3389-.0869.0899-.0869.2009-.0869.3118v5.2624c0 .1289-.012.2638.1019.3628.2009.4678.5637.5967 1.0525.5727.3118-.018.6087-.03.8666-.2219.0599.3358.2428.105.3808.084.4707.1829.8395-.009 1.1784-.3209.1619-.1199.1139-.2968.1139-.4557z"/><path d="m9.28935 63.3793c-.09595-.9145-.36581-1.7991-.44078-2.7196-.06596-.8126-.20989-1.6192-.32084-2.4288-.13193-.2129.003-.4558-.08695-.6747-.11395-.2998-.11694-.6147-.15892-.9265-.07497-.5727-.76762-.8786-1.27436-.6027-.14993.0809-.10795.2009-.13494.3238-.21289.9146-.27286 1.8501-.3958 2.7766-.11694.138.27286.3568-.07496.4558-.08396.5577-.16792 1.1154-.25188 1.6702-.08995.2159.04798.4617-.08695.6716-.24588.5667-.10495 1.2054-.32984 1.7751-.02099.054.01799.1919.03898.1949.35083.021.70465.069 1.04948.027.28486-.0359.23688-.3208.25787-.5397.02998-.3148.05697-.6147.52474-.5697.45577.042.3928.3658.3988.6417.003.1619-.09895.3448.12593.4198.35982.1139.74363.1319 1.09446.015.1859-.066.08395-.3329.06596-.5098zm-1.62818-1.8051c-.05098.03-.16192.03-.2039-.006-.11394-.0989-.05397-.2489-.04198-.3688.02099-.1799.08096-.3568.12294-.5367.02399.003.04798.009.07196.012.03299.1829.07796.3628.09895.5457.01799.1199.09596.2639-.04797.3538z"/><path d="m42.4647 63.3793c-.0959-.9145-.3658-1.7991-.4408-2.7196-.0659-.8126-.2099-1.6192-.3208-2.4288-.027-.2249.075-.4678-.087-.6747-.1139-.2998-.1169-.6147-.1589-.9265-.0749-.5727-.7676-.8786-1.2743-.6027-.15.0809-.108.2009-.135.3238-.2129.9146-.2728 1.8501-.3958 2.7766-.1199.138-.0659.3029-.0749.4558-.084.5577-.168 1.1154-.2519 1.6702-.1619.2069-.057.4467-.087.6716-.2459.5667-.1049 1.2054-.3298 1.7751-.021.054.018.1919.039.1949.3508.021.7046.069 1.0494.027.2849-.0359.2369-.3208.2579-.5397.03-.3148.057-.6147.5248-.5697.4557.042.3928.3658.3988.6417.003.1619-.099.3448.1259.4198.3598.1139.7436.1319 1.0944.015.183-.066.084-.3329.066-.5098zm-1.7211-1.7841c-.117.009-.1649-.045-.1679-.1589-.009-.2639.0539-.5128.1949-.8906.0599.3718.1049.6267.1379.8816.018.1169-.057.1619-.1649.1679z"/><path d="m73.0914 56.1139c-.1829.6507-.5457 1.2744-.2188 1.9881.0629.1349-.12.2008-.2279.2638-.036-.009-.072-.021-.108-.03-.0959-.2488-.2219-.4647-.2668-.7526-.078-.5067.1199-1.0884-.3089-1.5232-.3748-.087-.7496-.1859-1.1094.0569.018.2159.021.4378.0539.6507.2729 1.6672.9835 3.2414.9865 4.9775 0 .5008.06 1.0165.051 1.5293-.1289.1859-.1319.3688.003.5547.9805.3658 1.2504.1739 1.2474-.8306-.003-.8816-.105-1.7721.087-2.6477.1619-.0569.1379-.1979.1439-.3238.2968-1.3014.5907-2.6027.8875-3.9041-.4078-.2249-.8126-.2129-1.2204-.009z"/></g></svg>

<svg width="75" height="64" viewBox="0 0 75 64" fill="none" xmlns="http://www.w3.org/2000/svg">
<g clip-path="url(#clip0)">
<path d="M35.4752 26.081L32.0869 43.5262C32.0899 43.5262 32.0929 43.5262 32.0959 43.5262C34.8245 43.2204 37.0644 41.2234 37.5982 38.5277L39.6881 27.967C39.7481 27.6612 39.814 27.3703 39.883 27.0795C38.9835 26.3868 37.841 26.033 36.4467 26.033C36.1139 26.033 35.7931 26.051 35.4752 26.081Z" fill="white"/>
<path d="M52.1979 7.72114C49.5592 7.72114 47.2893 9.5952 46.7916 12.1889L45.979 16.4318L45.5442 18.7046L43.6821 28.4138C42.9625 26.6207 41.958 25.2414 40.6716 24.2819C40.6686 24.2819 40.6686 24.2789 40.6656 24.2789C41.6971 21.4633 45.0914 0 45.0914 0C42.4647 0 40.2099 1.86207 39.7091 4.43778L36.1349 22.8456C36.042 22.8426 35.955 22.8366 35.862 22.8366C32.1829 22.8366 28.9685 24.1919 26.2249 26.8995C23.4782 29.6102 21.6911 32.9865 20.8575 37.0375C20.7826 37.5172 20.6866 38.1709 20.5667 38.9925C20.4467 39.8141 20.3868 40.5607 20.3868 41.2264C20.3868 44.3688 21.2653 46.8006 23.0225 48.5217C24.6506 50.1109 26.8396 50.9085 29.5952 50.9085C33.6461 50.9085 37.2773 48.8936 40.4947 44.8606L39.3583 50.4348C39.3613 50.4348 39.3643 50.4348 39.3673 50.4348C42.1049 50.1439 44.3538 48.1379 44.8785 45.4333L50.1799 18.1349L50.7616 15.1364L52.1979 7.72114ZM42.3778 34.2489C42.3418 34.6267 42.2848 35.2144 42.2099 36.009C41.5622 39.3373 40.4617 42.1199 38.9085 44.3568C36.9115 47.2774 34.4138 48.7376 31.4213 48.7376C29.2953 48.7376 27.7031 47.997 26.6506 46.5187C25.7451 45.2234 25.2923 43.5412 25.2923 41.4693C25.2923 41.0795 25.3463 40.4708 25.4602 39.6402C25.5712 38.8096 25.6641 38.2069 25.7361 37.8381C26.4587 34.1949 27.5202 31.3463 28.9265 29.2954C30.6207 26.8546 32.8665 25.5142 35.6641 25.2654C35.982 25.2384 36.3058 25.2204 36.6387 25.2204C38.033 25.2204 39.1754 25.5742 40.0749 26.2669C40.5247 26.6117 40.9175 27.0345 41.2444 27.5502C42.039 28.7886 42.4378 30.5097 42.4378 32.7076C42.4348 33.3583 42.4168 33.8711 42.3778 34.2489Z" fill="white"/>
<path d="M0.0989233 59.5742C-0.0390077 58.5217 0.287829 57.4602 0.0179638 56.4108C-0.0480032 56.1559 0.0659398 56.003 0.368788 55.979C1.08243 55.925 1.22036 56.009 1.23536 56.7076C1.28333 58.8905 1.31631 61.0734 1.3433 63.2564C1.3523 63.97 1.20837 64.0629 0.506719 63.916C0.254845 63.865 0.149898 63.7541 0.149898 63.4782C0.149898 62.4737 0.116914 61.4692 0.0989233 60.4647C0.0509473 60.1709 0.0509473 59.871 0.0989233 59.5742Z" fill="white"/>
<path d="M18.2519 63.2654C18.2129 61.8381 18.3178 60.4108 18.2219 58.9805C18.2039 58.7136 17.97 58.3418 18.2699 58.057C18.2699 57.6462 18.2699 57.2354 18.2699 56.8246C18.2669 56.7316 18.2609 56.6417 18.2639 56.5487C18.2759 56.2728 18.2519 55.982 17.901 55.994C17.5232 56.006 16.9805 55.7631 16.8576 56.3778C16.6177 57.5712 16.1709 58.7046 15.889 60C15.7961 59.7901 15.7361 59.6791 15.7031 59.5622C15.4003 58.4857 15.1094 57.4063 14.8036 56.3298C14.6177 55.6791 14.087 56.048 13.7181 56.003C13.3253 55.955 13.4962 56.3178 13.4903 56.4917C13.4693 57.3313 13.4813 58.1709 13.4843 59.0105C13.4873 60.5397 13.5022 62.0719 13.4903 63.6012C13.4873 63.886 13.5862 63.961 13.8381 63.943C14.1289 63.922 14.4318 64.003 14.7016 63.8321C14.8876 63.6222 14.7796 63.3673 14.8036 63.1334C14.8636 62.5457 14.6867 61.946 14.8995 61.3673C14.9925 61.7301 15.0705 62.0989 15.1844 62.4558C15.3133 62.8606 15.6642 62.8246 15.997 62.8276C16.3148 62.8306 16.4228 62.6986 16.5097 62.3838C16.6027 62.039 16.6117 61.6312 16.9385 61.3283C16.9685 61.6791 16.8935 62.057 17.0465 62.2669C17.2504 62.5487 17.2264 62.6597 17.0495 62.9295C16.8756 63.1964 16.8516 63.6552 17.0645 63.8651C17.2804 64.0809 17.7121 63.979 18.03 63.919C18.3928 63.8531 18.2579 63.4992 18.2519 63.2654ZM14.7436 61.4303C14.7406 61.5022 14.7406 61.5712 14.7406 61.6432C14.7196 61.5652 14.6986 61.4842 14.7436 61.4303Z" fill="white"/>
<path d="M58.5008 59.2384C58.4888 58.2668 58.5907 57.2893 58.4078 56.3208C58.5427 56.2009 58.4558 56.1379 58.3478 56.0749C58.2129 55.997 58.102 55.973 58.063 56.1709C57.949 56.3238 57.7871 56.3388 57.6162 56.3268C57.5832 56.2848 57.5502 56.2399 57.5173 56.1979C57.5083 56.042 57.4303 55.949 57.2744 56C57.1154 56.054 57.3223 56.1319 57.2774 56.2039C57.1484 56.4078 57.2234 56.6357 57.2144 56.8516C57.1754 57.6791 57.2804 58.5127 57.1574 59.3403C56.8636 59.3313 56.5667 59.3223 56.2729 59.3133C56.2729 58.9595 56.2909 58.6057 56.2699 58.2519C56.2279 57.5712 56.3868 56.8815 56.1829 56.2099C55.7871 55.8231 55.3493 55.943 54.9055 56.0989C54.7856 56.2219 54.8156 56.3778 54.8156 56.5217C54.8156 58.8156 54.8156 61.1094 54.8156 63.4063C54.8156 63.5532 54.7856 63.7091 54.9085 63.8291C55.3493 63.973 55.7871 64.1049 56.1799 63.7181C56.3178 63.4962 56.3148 63.2744 56.1829 63.0495C56.1079 62.6387 56.1469 62.2249 56.1799 61.8141C56.3718 61.4273 56.2219 61.0135 56.2699 60.6177C56.5907 60.4887 56.8696 60.6836 57.1664 60.7346C57.2054 60.9115 57.2234 61.0914 57.2294 61.2684C57.2144 61.0884 57.1964 60.9115 57.1664 60.7346C57.2204 61.4303 57.0615 62.1349 57.2564 62.8216C57.1454 63.2234 57.2684 63.4663 57.7152 63.4872C57.7571 63.4902 57.7961 63.4932 57.8381 63.4962C57.937 63.6702 57.9251 64.009 58.2189 63.919C58.4528 63.8471 58.5158 63.5802 58.5128 63.3103C58.5008 61.955 58.5188 60.5967 58.5008 59.2384Z" fill="white"/>
<path d="M50.3238 56.3808C50.3238 56.3808 50.3238 56.3778 50.3238 56.3808C50.2818 56.1589 50.2278 55.922 49.931 55.994C49.6581 56.057 49.3973 55.97 49.1304 55.997C48.8425 56.3988 49.0464 56.8486 49.0015 57.2744C48.9385 57.5652 49.1964 57.8231 49.0794 58.1169C48.8485 58.4198 49.1334 58.8216 48.8935 59.1214C48.8515 59.0435 48.7946 58.9655 48.7676 58.8816C48.5187 58.081 48.2758 57.2804 48.033 56.4798C47.967 56.2609 47.892 56.027 47.5982 56.102C47.3133 56.1739 47.0375 56.078 46.7586 56.099C46.5337 56.9175 46.6027 57.7361 46.7256 58.5577C46.8066 58.6597 46.6716 58.8366 46.8456 58.9055C46.8575 58.9385 46.8635 58.9715 46.8575 59.0075C46.5337 59.3493 46.8845 59.7721 46.7226 60.1319C46.5487 60.4078 46.6327 60.7136 46.6417 61.0015C46.6776 61.943 46.5217 62.8876 46.7196 63.8261C47.1124 64.012 47.5052 64.015 47.898 63.8261C48.0719 63.3403 47.934 62.8366 47.979 62.3418C48.03 61.7931 47.874 61.2354 48.0719 60.6957C48.2189 61.5532 48.6446 62.3268 48.7946 63.1904C48.9235 63.94 49.0404 63.958 49.871 63.952C50.1859 63.949 50.3028 63.8471 50.2998 63.5382C50.2908 62.5727 50.3478 61.6012 50.2758 60.6417C50.2428 60.2129 50.4437 59.7691 50.2069 59.3553C50.3868 59.1634 50.2548 59.0315 50.1199 58.9025C50.3958 58.7646 50.1949 58.4678 50.3268 58.2819C50.3238 57.6492 50.3238 57.0135 50.3238 56.3808ZM47.907 60.8096C47.907 60.8726 47.907 60.9355 47.907 60.9985C47.892 60.9325 47.883 60.8666 47.907 60.8096Z" fill="white"/>
<path d="M26.4497 57.0525C26.3328 56.4917 26.1229 56.006 25.4422 55.991C24.6986 55.976 23.952 55.985 23.2083 55.991C23.0524 55.991 22.8635 55.973 22.8455 56.2159C22.7856 56.4887 22.8245 56.7676 22.8185 57.0435C22.7856 58.054 22.8785 59.0705 22.7706 60.0809C22.8155 60.7256 22.8155 61.3703 22.7706 62.012C22.8485 62.3778 22.8455 62.7406 22.7706 63.1064C22.8215 63.949 22.8215 63.949 23.7211 63.949C24.1859 63.949 24.6506 63.949 25.1184 63.949C26.1499 63.949 26.4197 63.6732 26.4257 62.6267C26.4317 60.9865 26.4437 59.3433 26.4527 57.7031C26.3688 57.4813 26.3868 57.2684 26.4497 57.0525ZM25.3673 61.7601C25.3583 61.7901 25.3463 61.8051 25.3343 61.8051C25.3313 61.916 25.3343 62.024 25.3253 62.1349C25.2713 62.8246 24.8545 63.0795 24.2188 62.8186C23.976 62.7196 24.0629 62.5007 24.0629 62.3358C24.0569 61.0495 24.0629 59.7631 24.0659 58.4768C24.0659 58.3268 24.0719 58.1769 24.0569 58.03C23.973 57.2534 24.2728 57.0015 25.0015 57.2174C25.2503 57.2923 25.1694 57.4782 25.1754 57.6252C25.2083 58.6027 25.1484 59.5922 25.2953 60.5517C25.3553 60.9415 25.0284 61.3193 25.3313 61.6702C25.3673 61.7001 25.3793 61.7301 25.3673 61.7601Z" fill="white"/>
<path d="M34.5787 60.8875C34.5787 59.4423 34.6357 57.994 34.5457 56.5487C34.2069 56.0929 33.7631 55.919 33.1904 55.979C32.7646 56.021 32.3328 55.982 31.904 55.988C31.3223 55.997 30.9865 56.3178 30.9835 56.8995C30.9745 58.9685 30.9715 61.0375 30.9745 63.1064C30.9745 63.6072 31.2894 63.925 31.7931 63.94C32.2789 63.955 32.7676 63.904 33.2474 63.958C33.8081 64.021 34.2069 63.8201 34.5217 63.3823C34.6627 62.5517 34.5787 61.7181 34.5787 60.8875ZM33.3223 61.1304C33.3583 61.1874 33.3883 61.2474 33.4123 61.3133C33.3913 61.7451 33.4483 62.1829 33.3133 62.6057C33.0255 62.8905 32.6387 62.7676 32.3508 62.7196C32.087 62.6746 32.2159 62.2728 32.2159 62.021C32.2219 60.9985 32.2339 59.979 32.1619 58.9595C32.1289 58.4707 32.1679 57.973 32.2219 57.4872C32.2789 56.9895 32.6897 57.2953 32.9325 57.2324C33.1604 57.1724 33.3313 57.2444 33.3103 57.5442C33.2894 57.8321 33.2984 59.1874 33.3793 59.5292C33.3073 59.6971 33.4033 59.94 33.4093 60.1169C33.3913 60.2669 33.4453 60.4198 33.3943 60.5697C33.2294 60.7346 33.3283 60.9385 33.3223 61.1304Z" fill="white"/>
<path d="M66.6956 63.0375C66.6986 62.1739 66.6926 61.3133 66.6896 60.4498C66.6896 59.6761 66.6896 58.9055 66.6896 58.1319C66.6896 57.7721 66.6866 57.4093 66.6866 57.0495C66.6776 56.5127 66.7346 55.979 65.895 56.012C65.4782 56.03 65.3013 56.0869 65.3553 56.5487C65.3733 56.7136 65.3643 56.8815 65.3673 57.0495C65.3673 57.3463 65.3643 57.6462 65.3643 57.943C65.3643 58.1799 65.3613 58.4168 65.3613 58.6537C65.3613 58.8635 65.3643 59.0764 65.3643 59.2863C65.3643 60.042 65.3643 60.8006 65.3643 61.5562C65.3883 61.865 65.2623 62.1859 65.4452 62.4797C65.2144 63.1274 64.7346 62.7946 64.3328 62.7616C64.3328 61.979 64.3358 61.1934 64.3358 60.4108C64.3358 60.1769 64.3358 59.946 64.3358 59.7121C64.3358 59.0854 64.3358 58.4618 64.3358 57.8351C64.3268 57.3523 64.3148 56.8665 64.3148 56.3838C64.3148 56.2069 64.3148 55.994 64.1019 56C63.7661 56.012 63.4063 55.8501 63.0914 56.0989C62.9505 56.4348 62.9505 56.7676 63.0914 57.1034C63.0914 57.2174 63.0884 57.3313 63.0884 57.4423C63.0015 57.5322 63.0015 57.6432 63.0015 57.7541C63.0015 59.5082 63.0015 61.2623 63.0015 63.0165C63.0015 63.1454 62.9895 63.2803 63.1034 63.3793C63.3043 63.8471 63.6671 63.976 64.1559 63.952C64.4677 63.934 64.7646 63.922 65.0225 63.7301C65.0824 64.0659 65.2653 63.8351 65.4033 63.8141C65.874 63.997 66.2428 63.8051 66.5817 63.4932C66.7436 63.3733 66.6956 63.1964 66.6956 63.0375Z" fill="white"/>
<path d="M9.28935 63.3793C9.1934 62.4648 8.92354 61.5802 8.84857 60.6597C8.78261 59.8471 8.63868 59.0405 8.52773 58.2309C8.3958 58.018 8.53073 57.7751 8.44078 57.5562C8.32683 57.2564 8.32384 56.9415 8.28186 56.6297C8.20689 56.057 7.51424 55.7511 7.0075 56.027C6.85757 56.1079 6.89955 56.2279 6.87256 56.3508C6.65967 57.2654 6.5997 58.2009 6.47676 59.1274C6.35982 59.2654 6.74962 59.4842 6.4018 59.5832C6.31784 60.1409 6.23388 60.6986 6.14992 61.2534C6.05997 61.4693 6.1979 61.7151 6.06297 61.925C5.81709 62.4917 5.95802 63.1304 5.73313 63.7001C5.71214 63.7541 5.75112 63.892 5.77211 63.895C6.12294 63.916 6.47676 63.964 6.82159 63.922C7.10645 63.8861 7.05847 63.6012 7.07946 63.3823C7.10944 63.0675 7.13643 62.7676 7.6042 62.8126C8.05997 62.8546 7.997 63.1784 8.003 63.4543C8.006 63.6162 7.90405 63.7991 8.12893 63.8741C8.48875 63.988 8.87256 64.006 9.22339 63.8891C9.40929 63.8231 9.30734 63.5562 9.28935 63.3793ZM7.66117 61.5742C7.61019 61.6042 7.49925 61.6042 7.45727 61.5682C7.34333 61.4693 7.4033 61.3193 7.41529 61.1994C7.43628 61.0195 7.49625 60.8426 7.53823 60.6627C7.56222 60.6657 7.58621 60.6717 7.61019 60.6747C7.64318 60.8576 7.68815 61.0375 7.70914 61.2204C7.72713 61.3403 7.8051 61.4843 7.66117 61.5742Z" fill="white"/>
<path d="M42.4647 63.3793C42.3688 62.4648 42.0989 61.5802 42.0239 60.6597C41.958 59.8471 41.814 59.0405 41.7031 58.2309C41.6761 58.006 41.7781 57.7631 41.6161 57.5562C41.5022 57.2564 41.4992 56.9415 41.4572 56.6297C41.3823 56.057 40.6896 55.7511 40.1829 56.027C40.0329 56.1079 40.0749 56.2279 40.0479 56.3508C39.835 57.2654 39.7751 58.2009 39.6521 59.1274C39.5322 59.2654 39.5862 59.4303 39.5772 59.5832C39.4932 60.1409 39.4092 60.6986 39.3253 61.2534C39.1634 61.4603 39.2683 61.7001 39.2383 61.925C38.9924 62.4917 39.1334 63.1304 38.9085 63.7001C38.8875 63.7541 38.9265 63.892 38.9475 63.895C39.2983 63.916 39.6521 63.964 39.9969 63.922C40.2818 63.8861 40.2338 63.6012 40.2548 63.3823C40.2848 63.0675 40.3118 62.7676 40.7796 62.8126C41.2353 62.8546 41.1724 63.1784 41.1784 63.4543C41.1814 63.6162 41.0794 63.7991 41.3043 63.8741C41.6641 63.988 42.0479 64.006 42.3987 63.8891C42.5817 63.8231 42.4827 63.5562 42.4647 63.3793ZM40.7436 61.5952C40.6266 61.6042 40.5787 61.5502 40.5757 61.4363C40.5667 61.1724 40.6296 60.9235 40.7706 60.5457C40.8305 60.9175 40.8755 61.1724 40.9085 61.4273C40.9265 61.5442 40.8515 61.5892 40.7436 61.5952Z" fill="white"/>
<path d="M73.0914 56.1139C72.9085 56.7646 72.5457 57.3883 72.8726 58.102C72.9355 58.2369 72.7526 58.3028 72.6447 58.3658C72.6087 58.3568 72.5727 58.3448 72.5367 58.3358C72.4408 58.087 72.3148 57.8711 72.2699 57.5832C72.1919 57.0765 72.3898 56.4948 71.961 56.06C71.5862 55.973 71.2114 55.8741 70.8516 56.1169C70.8696 56.3328 70.8726 56.5547 70.9055 56.7676C71.1784 58.4348 71.889 60.009 71.892 61.7451C71.892 62.2459 71.952 62.7616 71.943 63.2744C71.8141 63.4603 71.8111 63.6432 71.946 63.8291C72.9265 64.1949 73.1964 64.003 73.1934 62.9985C73.1904 62.1169 73.0884 61.2264 73.2804 60.3508C73.4423 60.2939 73.4183 60.1529 73.4243 60.027C73.7211 58.7256 74.015 57.4243 74.3118 56.1229C73.904 55.898 73.4992 55.91 73.0914 56.1139Z" fill="white"/>
</g>
<defs>
<clipPath id="clip0">
<rect width="74.3088" height="64" fill="white"/>
</clipPath>
</defs>
</svg>
